src/pos-icons/human-male.svg

<svg height="24" viewBox="0 0 24 24" width="24" xmlns="http://www.w3.org/2000/svg"><path d="m12 2a2 2 0 0 1 2 2 2 2 0 0 1 -2 2 2 2 0 0 1 -2-2 2 2 0 0 1 2-2m-1.5 5h3a2 2 0 0 1 2 2v5.5h-1.5v7.5h-4v-7.5h-1.5v-5.5a2 2 0 0 1 2-2z"/></svg>

<?xml version="1.0" encoding="UTF-8"?><!DOCTYPE svg PUBLIC "-//W3C//DTD SVG 1.1//EN" "http://www.w3.org/Graphics/SVG/1.1/DTD/svg11.dtd"><svg xmlns="http://www.w3.org/2000/svg" xmlns:xlink="http://www.w3.org/1999/xlink" version="1.1" id="mdi-human-male" width="24" height="24" viewBox="0 0 24 24"><path d="M12,2A2,2 0 0,1 14,4A2,2 0 0,1 12,6A2,2 0 0,1 10,4A2,2 0 0,1 12,2M10.5,7H13.5A2,2 0 0,1 15.5,9V14.5H14V22H10V14.5H8.5V9A2,2 0 0,1 10.5,7Z" /></svg>
